source/img/tff-percent.svg

<svg width="160" height="296" viewBox="0 0 160 296" fill="none" xmlns="http://www.w3.org/2000/svg">
<path d="M0 48H160V293C160 294.657 158.657 296 157 296H3C1.34315 296 0 294.657 0 293V48Z" fill="#AAF0D1"/>
<path d="M0 29.9717C0 28.3148 1.34315 26.9717 3 26.9717H157C158.657 26.9717 160 28.3148 160 29.9717V225.972H0V29.9717Z" fill="#FFF1F6"/>
<path d="M0 15.5256V30C0 31.1046 0.895429 32 2 32H158C159.105 32 160 31.1046 160 30V2.96329C160 1.54589 158.566 0.577786 157.245 1.0913C132.911 10.55 106.468 15.8727 66 7.5C37.3928 1.58127 26.3013 0.0414616 1.04836 13.7706C0.408389 14.1185 0 14.7972 0 15.5256Z" fill="#FFF1F6"/>
<path d="M51.1245 89.6934C51.4663 89.6934 51.6372 90.0181 51.6372 90.6675C51.6372 91.3169 51.5404 91.8467 51.3467 92.2568C51.153 92.667 50.8853 93.0145 50.5435 93.2993C49.8485 93.8804 48.9256 94.1709 47.7749 94.1709C46.9774 94.1709 46.0716 94.0114 45.0576 93.6924C44.0436 93.362 43.2632 93.1227 42.7163 92.9746C42.1808 92.8265 41.6852 92.7524 41.2295 92.7524C40.7852 92.7524 40.4206 92.798 40.1357 92.8892C39.8623 92.9803 39.606 93.0942 39.3667 93.231C39.1388 93.3677 38.9167 93.5101 38.7002 93.6582C38.2445 93.9772 37.9312 94.1367 37.7603 94.1367C37.6007 94.1367 37.4412 94.0911 37.2817 94C37.1222 93.9089 36.9741 93.7892 36.8374 93.6411C36.5184 93.2993 36.3589 93.0316 36.3589 92.8379C36.3589 92.6442 36.4614 92.2967 36.6665 91.7954C36.883 91.2941 37.3102 90.6048 37.9482 89.7275C38.5863 88.8389 39.2926 87.9673 40.0674 87.1128C40.8421 86.2469 41.6624 85.3924 42.5283 84.5493C45.0576 82.0656 46.6982 80.425 47.4502 79.6274C48.2135 78.8299 48.8857 78.0381 49.4668 77.252C50.7314 75.5544 51.3638 74.022 51.3638 72.6548C51.3638 71.2078 50.8454 70.2736 49.8086 69.8521C49.4896 69.7267 49.0737 69.6641 48.561 69.6641C48.0597 69.6641 47.5527 69.8122 47.04 70.1084C46.5273 70.3932 46.0944 70.7578 45.7412 71.2021C45.012 72.1022 44.6475 73.0763 44.6475 74.1245C44.6475 75.0815 44.9209 75.674 45.4678 75.9019C45.6956 76.0044 45.8096 76.1525 45.8096 76.3462C45.8096 76.7563 45.6102 77.1323 45.2114 77.4741C44.4709 78.1121 43.8385 78.4312 43.3145 78.4312C42.7904 78.4312 42.3688 78.3343 42.0498 78.1406C41.7308 77.9469 41.4631 77.6906 41.2466 77.3716C40.8136 76.7336 40.5972 76.0443 40.5972 75.3037C40.5972 74.5518 40.6883 73.8796 40.8706 73.2871C41.0529 72.6947 41.3149 72.1193 41.6567 71.561C42.0099 70.9914 42.4258 70.4559 42.9043 69.9546C43.3942 69.4533 43.9411 69.0146 44.5449 68.6387C45.8779 67.8184 47.1825 67.4082 48.4585 67.4082C49.7459 67.4082 50.7599 67.5791 51.5005 67.9209C52.2524 68.2627 52.862 68.707 53.3291 69.2539C54.195 70.3021 54.6279 71.6351 54.6279 73.2529C54.6279 75.9076 53.3405 78.5907 50.7656 81.3022C49.4098 82.7264 48.0369 83.9967 46.647 85.1133L43.3999 87.728C41.634 89.1864 40.4149 90.3826 39.7427 91.3169C40.62 90.9295 41.3434 90.7188 41.9131 90.6846C42.4827 90.639 42.9442 90.6276 43.2974 90.6504C43.6619 90.6618 44.0436 90.6846 44.4424 90.7188C45.4906 90.8099 46.328 90.8555 46.9546 90.8555C47.5812 90.8555 48.1224 90.7985 48.5781 90.6846C49.0452 90.5592 49.4212 90.4225 49.7061 90.2744C50.0023 90.1263 50.2472 89.9953 50.4409 89.8813C50.6346 89.756 50.8625 89.6934 51.1245 89.6934ZM66.8984 82.2251C68.1745 84.3328 68.8125 86.1956 68.8125 87.8135C68.8125 89.6934 68.0833 91.2428 66.625 92.4619C65.235 93.6012 63.5944 94.1709 61.7031 94.1709C59.7207 94.1709 58.2168 93.5671 57.1914 92.3594C56.4167 91.4365 56.0293 90.377 56.0293 89.1807C56.0293 87.016 57.2541 85.1475 59.7036 83.5752C60.4784 83.0853 61.3044 82.6751 62.1816 82.3447C60.5866 80.0661 59.7891 77.8045 59.7891 75.5601C59.7891 73.27 60.541 71.3332 62.0449 69.7495C63.4919 68.2114 65.2806 67.431 67.4111 67.4082C69.3822 67.3854 70.9316 67.9665 72.0596 69.1514C73.1077 70.2337 73.6318 71.6351 73.6318 73.3555C73.6318 77.1722 71.4045 80.1174 66.9497 82.1909L66.8984 82.2251ZM65.6509 80.2769C68.4536 78.7957 69.855 76.6367 69.855 73.7998C69.855 72.2845 69.5189 71.168 68.8467 70.4502C68.2314 69.7894 67.4396 69.5103 66.4712 69.6128C65.5825 69.6812 64.8135 70.097 64.1641 70.8604C63.4577 71.6807 63.1045 72.6605 63.1045 73.7998C63.1045 74.8594 63.2925 75.8164 63.6685 76.6709C64.0444 77.5254 64.3862 78.209 64.6938 78.7217L65.6509 80.2769ZM63.4976 84.105C60.8657 85.005 59.5498 86.583 59.5498 88.8389C59.5498 90.377 60.1366 91.4251 61.3101 91.9834C61.7088 92.1657 62.1361 92.2568 62.5918 92.2568C63.0589 92.2568 63.4805 92.1771 63.8564 92.0176C64.2324 91.8581 64.5742 91.6302 64.8818 91.334C65.554 90.6846 65.8901 89.9212 65.8901 89.0439C65.8901 88.2578 65.7135 87.5457 65.3604 86.9077C65.0186 86.2697 64.6995 85.7513 64.4033 85.3525L63.4976 84.105ZM80.6387 83.8315C80.1943 83.8315 79.9722 83.6606 79.9722 83.3188C79.9722 82.5213 80.2513 81.8434 80.8096 81.2852C80.9919 81.1029 81.3451 80.9377 81.8691 80.7896C82.4046 80.63 83.0882 80.3053 83.9199 79.8154C84.763 79.3141 85.5264 78.7103 86.21 78.0039C87.748 76.3975 88.5171 74.5688 88.5171 72.5181C88.5171 71.6294 88.2949 70.9344 87.8506 70.4331C87.4062 69.9204 86.8423 69.6641 86.1587 69.6641C85.4751 69.6641 84.8485 69.8122 84.2788 70.1084C83.7205 70.3932 83.2306 70.7578 82.8091 71.2021C81.909 72.1364 81.459 73.1105 81.459 74.1245C81.459 75.0815 81.7324 75.674 82.2793 75.9019C82.5072 76.0044 82.6211 76.1525 82.6211 76.3462C82.6211 76.7563 82.4217 77.1323 82.0229 77.4741C81.2824 78.1121 80.6558 78.4312 80.1431 78.4312C79.6304 78.4312 79.2145 78.3514 78.8955 78.1919C78.5765 78.0324 78.3031 77.8102 78.0752 77.5254C77.6309 76.9329 77.4087 76.255 77.4087 75.4917C77.4087 74.7284 77.5112 74.0448 77.7163 73.4409C77.9214 72.8371 78.2062 72.2503 78.5708 71.6807C78.9468 71.0996 79.3968 70.5527 79.9209 70.04C80.4564 69.5273 81.0488 69.0716 81.6982 68.6729C83.0882 67.8298 84.444 67.4082 85.7656 67.4082C87.0986 67.4082 88.1354 67.5791 88.876 67.9209C89.6279 68.2627 90.2318 68.707 90.6875 69.2539C91.5306 70.2679 91.9521 71.6009 91.9521 73.2529C91.9521 75.9417 90.7217 78.4539 88.2607 80.7896C87.3493 81.6554 86.472 82.2992 85.6289 82.7207C86.6087 83.0169 87.2809 83.8258 87.6455 85.1475C87.7594 85.5576 87.8164 86.0304 87.8164 86.5659C87.8164 87.09 87.7196 87.6597 87.5259 88.2749C87.3322 88.8901 87.0588 89.4883 86.7056 90.0693C86.3524 90.639 85.9194 91.1745 85.4067 91.6758C84.894 92.1657 84.3187 92.5986 83.6807 92.9746C82.3021 93.7721 80.8096 94.1709 79.2031 94.1709C77.5511 94.1709 76.2637 93.738 75.3408 92.8721C74.5433 92.1315 74.1445 91.2314 74.1445 90.1719C74.1445 89.3402 74.4066 88.5768 74.9307 87.8818C75.5573 87.0843 76.3719 86.6855 77.3745 86.6855C77.9328 86.6855 78.3315 86.8052 78.5708 87.0444C78.9924 87.466 79.0949 87.8021 78.8784 88.0527C78.6733 88.292 78.491 88.5142 78.3315 88.7192C78.1834 88.9129 78.0581 89.1123 77.9556 89.3174C77.7505 89.7048 77.6479 90.0579 77.6479 90.377C77.6479 90.696 77.6764 90.9523 77.7334 91.146C77.7904 91.3283 77.8815 91.4935 78.0068 91.6416C78.3031 91.972 78.7588 92.1372 79.374 92.1372C79.9893 92.1372 80.5874 91.9435 81.1685 91.5562C81.7609 91.1688 82.2793 90.6732 82.7236 90.0693C83.6693 88.7819 84.1421 87.3976 84.1421 85.9165C84.1421 84.424 83.5212 83.6777 82.2793 83.6777L80.6387 83.8315ZM99.1812 92.1201C98.6685 92.7809 98.1899 93.2708 97.7456 93.5898C97.3013 93.9089 96.7829 94.0684 96.1904 94.0684C95.598 94.0684 95.3018 93.869 95.3018 93.4702C95.3018 93.1398 95.4556 92.7581 95.7632 92.3252C96.0822 91.8809 96.3215 91.5562 96.481 91.3511C96.6405 91.1346 96.988 90.696 97.5234 90.0352C108.165 76.9102 113.787 70.0002 114.391 69.3052C115.348 68.0177 116.425 67.374 117.621 67.374C118.179 67.374 118.458 67.5563 118.458 67.9209C118.458 68.4222 117.912 69.3906 116.818 70.8262L113.656 74.7568L103.231 87.3691L99.1812 92.1201ZM102.36 79.0293C101.813 79.4281 101.226 79.7471 100.6 79.9863C99.9844 80.2142 99.3407 80.3281 98.6685 80.3281C98.0076 80.3281 97.3981 80.237 96.8398 80.0547C96.293 79.861 95.8145 79.5762 95.4043 79.2002C94.5612 78.3913 94.1396 77.195 94.1396 75.6113C94.1396 73.6973 94.8745 71.8743 96.3442 70.1426C97.8823 68.3311 99.654 67.4253 101.659 67.4253C103.676 67.4253 105.014 68.3026 105.675 70.0571C105.903 70.661 106.017 71.3218 106.017 72.0396C106.017 72.7573 105.926 73.4352 105.744 74.0732C105.573 74.7113 105.328 75.3322 105.009 75.936C104.69 76.5399 104.302 77.1095 103.847 77.645C103.402 78.1691 102.907 78.6305 102.36 79.0293ZM98.6172 78.4482C99.2096 78.4482 99.8363 78.021 100.497 77.1665C101.465 75.936 102.138 74.4264 102.514 72.6377C102.628 72.0908 102.685 71.6408 102.685 71.2876C102.685 70.9344 102.667 70.6496 102.633 70.4331C102.611 70.2052 102.559 70.0059 102.479 69.835C102.286 69.4818 102.012 69.3052 101.659 69.3052C101.306 69.3052 100.981 69.4134 100.685 69.6299C100.389 69.835 100.087 70.1255 99.7793 70.5015C99.4831 70.866 99.1925 71.2933 98.9077 71.7832C98.6229 72.2617 98.3665 72.7744 98.1387 73.3213C97.6602 74.529 97.4209 75.6854 97.4209 76.7905C97.4209 77.8957 97.8197 78.4482 98.6172 78.4482ZM108.153 91.5732C107.925 90.9808 107.812 90.3257 107.812 89.6079C107.812 88.8901 107.897 88.2122 108.068 87.5742C108.25 86.9248 108.507 86.2982 108.837 85.6943C109.167 85.0905 109.56 84.5208 110.016 83.9854C110.472 83.4499 110.979 82.9827 111.537 82.584C112.745 81.7067 114.009 81.2681 115.331 81.2681C117.348 81.2681 118.686 82.1453 119.347 83.8999C119.575 84.5037 119.689 85.1646 119.689 85.8823C119.689 86.6001 119.598 87.278 119.416 87.916C119.245 88.554 119 89.175 118.681 89.7788C118.362 90.3826 117.974 90.9523 117.519 91.4878C117.074 92.0119 116.579 92.4733 116.032 92.8721C114.847 93.738 113.616 94.1709 112.34 94.1709C110.187 94.1709 108.791 93.305 108.153 91.5732ZM112.289 92.291C112.882 92.291 113.508 91.8638 114.169 91.0093C115.137 89.7788 115.81 88.2692 116.186 86.4805C116.299 85.9336 116.356 85.4836 116.356 85.1304C116.356 84.7772 116.339 84.4924 116.305 84.2759C116.282 84.048 116.231 83.8486 116.151 83.6777C115.958 83.3245 115.684 83.1479 115.331 83.1479C114.978 83.1479 114.653 83.2562 114.357 83.4727C114.061 83.6777 113.759 83.9683 113.451 84.3442C113.155 84.7088 112.864 85.1361 112.58 85.626C112.295 86.1045 112.038 86.6172 111.811 87.1641C111.332 88.3717 111.093 89.5282 111.093 90.6333C111.093 91.7384 111.492 92.291 112.289 92.291Z" fill="#FF689E"/>
</svg>

<svg width="160" height="296" fill="none" xmlns="http://www.w3.org/2000/svg"><path d="M0 48h160v245a3 3 0 01-3 3H3a3 3 0 01-3-3V48z" fill="#AAF0D1"/><path d="M0 29.972a3 3 0 013-3h154a3 3 0 013 3v196H0v-196z" fill="#FFF1F6"/><path d="M0 15.526V30a2 2 0 002 2h156a2 2 0 002-2V2.963c0-1.417-1.434-2.385-2.755-1.872C132.911 10.55 106.468 15.873 66 7.5 37.393 1.581 26.301.041 1.048 13.77A2.01 2.01 0 000 15.527z" fill="#FFF1F6"/><path d="M51.124 89.693c.342 0 .513.325.513.975 0 .649-.097 1.179-.29 1.589-.194.41-.462.757-.803 1.042-.695.581-1.618.872-2.77.872-.797 0-1.702-.16-2.716-.479a52.233 52.233 0 00-2.342-.717 5.605 5.605 0 00-1.486-.223c-.445 0-.81.046-1.094.137-.274.091-.53.205-.77.342-.227.137-.45.28-.666.427-.456.32-.769.479-.94.479a.958.958 0 01-.478-.137 1.863 1.863 0 01-.445-.359c-.319-.342-.478-.61-.478-.803 0-.194.102-.541.307-1.043.217-.5.644-1.19 1.282-2.067a29.594 29.594 0 012.12-2.615 51.606 51.606 0 012.46-2.564c2.53-2.483 4.17-4.124 4.922-4.922a24.61 24.61 0 002.017-2.375c1.264-1.698 1.897-3.23 1.897-4.597 0-1.447-.519-2.381-1.555-2.803-.32-.125-.735-.188-1.248-.188-.501 0-1.008.148-1.521.444a4.32 4.32 0 00-1.299 1.094c-.729.9-1.093 1.874-1.093 2.922 0 .958.273 1.55.82 1.778.228.102.342.25.342.444 0 .41-.2.786-.599 1.128-.74.638-1.372.957-1.896.957-.525 0-.946-.097-1.265-.29a2.584 2.584 0 01-.803-.77 3.611 3.611 0 01-.65-2.067c0-.752.091-1.424.274-2.017a7.556 7.556 0 01.786-1.726 9.796 9.796 0 011.247-1.606 8.751 8.751 0 011.64-1.316c1.334-.82 2.639-1.23 3.915-1.23 1.287 0 2.3.17 3.041.512.752.342 1.362.786 1.83 1.333.865 1.048 1.298 2.381 1.298 3.999 0 2.655-1.288 5.338-3.862 8.05a42.185 42.185 0 01-4.119 3.81L43.4 87.728c-1.766 1.458-2.985 2.655-3.657 3.589.877-.387 1.6-.598 2.17-.632a10.01 10.01 0 011.384-.035c.365.012.747.035 1.145.069 1.049.09 1.886.137 2.513.137.626 0 1.167-.057 1.623-.171a5.816 5.816 0 001.128-.41c.296-.149.541-.28.735-.394a1.23 1.23 0 01.683-.188zm15.774-7.468c1.276 2.108 1.915 3.97 1.915 5.589 0 1.88-.73 3.429-2.188 4.648-1.39 1.14-3.03 1.709-4.922 1.709-1.982 0-3.486-.604-4.512-1.812a4.802 4.802 0 01-1.162-3.178c0-2.165 1.225-4.034 3.675-5.606.774-.49 1.6-.9 2.478-1.23-1.595-2.279-2.393-4.54-2.393-6.785 0-2.29.752-4.227 2.256-5.81 1.447-1.539 3.236-2.319 5.366-2.342 1.971-.023 3.52.558 4.649 1.743 1.048 1.083 1.572 2.484 1.572 4.205 0 3.816-2.228 6.761-6.682 8.835l-.052.034zm-1.247-1.948c2.803-1.481 4.204-3.64 4.204-6.477 0-1.516-.336-2.632-1.008-3.35-.616-.66-1.407-.94-2.376-.837-.889.068-1.657.484-2.307 1.247-.706.82-1.06 1.8-1.06 2.94 0 1.06.188 2.016.565 2.87.375.855.717 1.539 1.025 2.052l.957 1.555zm-2.153 3.828c-2.632.9-3.948 2.478-3.948 4.734 0 1.538.587 2.586 1.76 3.144.399.183.826.274 1.282.274.467 0 .889-.08 1.264-.24a3.366 3.366 0 001.026-.683c.672-.65 1.008-1.413 1.008-2.29 0-.786-.177-1.498-.53-2.136a12.75 12.75 0 00-.957-1.555l-.905-1.248zm17.14-.273c-.444 0-.666-.171-.666-.513 0-.798.28-1.476.838-2.034.182-.182.535-.347 1.06-.495.535-.16 1.218-.485 2.05-.975a10.988 10.988 0 002.29-1.811c1.538-1.607 2.307-3.435 2.307-5.486 0-.889-.222-1.584-.666-2.085a2.141 2.141 0 00-1.692-.769c-.684 0-1.31.148-1.88.444a5.376 5.376 0 00-1.47 1.094c-.9.934-1.35 1.909-1.35 2.922 0 .958.273 1.55.82 1.778.228.102.342.25.342.444 0 .41-.2.786-.598 1.128-.74.638-1.367.957-1.88.957-.513 0-.928-.08-1.248-.24a2.436 2.436 0 01-.82-.666 3.3 3.3 0 01-.666-2.033c0-.764.102-1.447.307-2.051.205-.604.49-1.19.855-1.76a9.563 9.563 0 011.35-1.641 10.517 10.517 0 011.777-1.367c1.39-.843 2.746-1.265 4.068-1.265 1.333 0 2.37.171 3.11.513.752.342 1.356.786 1.811 1.333.844 1.014 1.265 2.347 1.265 3.999 0 2.689-1.23 5.2-3.691 7.537-.912.865-1.789 1.51-2.632 1.93.98.297 1.652 1.106 2.016 2.427.114.41.171.883.171 1.419 0 .524-.096 1.094-.29 1.709a8.175 8.175 0 01-.82 1.794 8.546 8.546 0 01-1.3 1.607 9.38 9.38 0 01-1.725 1.299 8.79 8.79 0 01-4.478 1.196c-1.652 0-2.94-.433-3.862-1.299-.798-.74-1.197-1.64-1.197-2.7 0-.832.263-1.595.787-2.29.626-.798 1.44-1.197 2.444-1.197.558 0 .957.12 1.196.36.421.421.524.757.307 1.008-.205.239-.387.461-.546.666a3.732 3.732 0 00-.376.598c-.206.388-.308.74-.308 1.06 0 .319.028.575.085.769.057.182.148.347.274.496.296.33.752.495 1.367.495s1.213-.194 1.794-.58a6.009 6.009 0 001.556-1.488c.945-1.287 1.418-2.671 1.418-4.153 0-1.492-.62-2.238-1.863-2.238l-1.64.154zm18.543 8.288c-.513.66-.991 1.15-1.435 1.47-.445.319-.963.478-1.556.478-.592 0-.888-.199-.888-.598 0-.33.154-.712.461-1.145.32-.444.558-.769.718-.974.16-.216.507-.655 1.042-1.316C108.165 76.91 113.787 70 114.391 69.305c.957-1.287 2.034-1.931 3.23-1.931.558 0 .837.182.837.547 0 .501-.546 1.47-1.64 2.905l-3.162 3.93-10.425 12.613-4.05 4.751zm3.179-13.09a7.551 7.551 0 01-1.76.956 5.518 5.518 0 01-1.931.342c-.661 0-1.27-.091-1.83-.273a4.149 4.149 0 01-1.435-.855c-.843-.809-1.264-2.005-1.264-3.589 0-1.914.734-3.737 2.204-5.468 1.538-1.812 3.31-2.718 5.315-2.718 2.017 0 3.355.878 4.016 2.632a5.57 5.57 0 01.342 1.983 7.38 7.38 0 01-.273 2.033 8.924 8.924 0 01-.735 1.863 9.46 9.46 0 01-1.162 1.709c-.445.524-.94.986-1.487 1.384zm-3.743-.582c.593 0 1.22-.427 1.88-1.281.968-1.231 1.641-2.74 2.017-4.53.114-.546.171-.996.171-1.35a5.71 5.71 0 00-.052-.854 1.815 1.815 0 00-.154-.598c-.193-.353-.467-.53-.82-.53-.353 0-.678.108-.974.325-.296.205-.598.496-.906.871a10.01 10.01 0 00-.871 1.282 12.26 12.26 0 00-.77 1.538c-.478 1.208-.717 2.364-.717 3.47 0 1.105.399 1.657 1.196 1.657zm9.536 13.125a5.43 5.43 0 01-.341-1.965c0-.718.085-1.396.256-2.034.182-.65.439-1.276.769-1.88.33-.603.723-1.173 1.179-1.709a8.432 8.432 0 011.521-1.401c1.208-.877 2.472-1.316 3.794-1.316 2.017 0 3.355.877 4.016 2.632a5.57 5.57 0 01.342 1.982c0 .718-.091 1.396-.273 2.034a8.926 8.926 0 01-.735 1.863 9.464 9.464 0 01-1.162 1.709c-.445.524-.94.985-1.487 1.384-1.185.866-2.416 1.299-3.692 1.299-2.153 0-3.549-.866-4.187-2.598zm4.136.718c.593 0 1.219-.427 1.88-1.282.968-1.23 1.641-2.74 2.017-4.528.113-.547.17-.997.17-1.35 0-.354-.017-.639-.051-.855a1.84 1.84 0 00-.154-.598c-.193-.353-.467-.53-.82-.53-.353 0-.678.108-.974.325-.296.205-.598.495-.906.871a9.957 9.957 0 00-.871 1.282c-.285.478-.542.991-.769 1.538-.479 1.208-.718 2.364-.718 3.47 0 1.104.399 1.657 1.196 1.657z" fill="#FF689E"/></svg>
